lib/assets/images/will-style/logos/play-logos/play-grey-bg.svg

<svg viewBox="0 0 300 300" xmlns="http://www.w3.org/2000/svg" xmlns:xlink="http://www.w3.org/1999/xlink"><linearGradient id="a" gradientTransform="translate(0 -1628)" gradientUnits="userSpaceOnUse" x1="139.49" x2="183.62" y1="1685.57" y2="1824.58"><stop offset="0" stop-color="#bfdd99"/><stop offset="1" stop-color="#4bbd98"/></linearGradient><linearGradient id="b" x1="81.8" x2="125.93" xlink:href="#a" y1="1703.89" y2="1842.9"/><linearGradient id="c" x1="157.06" x2="201.19" xlink:href="#a" y1="1679.99" y2="1819"/><linearGradient id="d" x1="71.13" x2="115.26" xlink:href="#a" y1="1707.27" y2="1846.28"/><path d="m0 0h300v300h-300z" fill="#2e2e2f"/><path d="m149.93 132.69 29.74-19.26-57.78-40.57 18 56.23c1.43 4.61 5.97 6.23 10.04 3.6z" fill="url(#a)"/><path d="m126.36 148a12.22 12.22 0 0 0 4.72-13.2l-22.83-71.47-12.19-8.56c-7.18-5-13.06-2-13.06 6.79v114.44z" fill="url(#b)"/><path d="m225.49 145.6-36.92-25.93-35.46 23a12.22 12.22 0 0 0 -4.72 13.2l16.24 50.84 60.87-42.71c7.18-5.1 7.18-13.36-.01-18.4z" fill="url(#c)"/><path d="m139.63 161.52c-1.48-4.62-6-6.24-10.09-3.61l-46.54 30.15v60c0 8.78 5.88 11.84 13.07 6.79l59.93-42.11z" fill="url(#d)"/></svg>

<svg xmlns="http://www.w3.org/2000/svg" xmlns:xlink="http://www.w3.org/1999/xlink" viewBox="0 0 300 300"><defs><linearGradient id="linear-gradient" x1="139.49" y1="1685.57" x2="183.62" y2="1824.58" gradientTransform="translate(0 -1628)" gradientUnits="userSpaceOnUse"><stop offset="0" stop-color="#bfdd99"/><stop offset="1" stop-color="#4bbd98"/></linearGradient><linearGradient id="linear-gradient-2" x1="81.8" y1="1703.89" x2="125.93" y2="1842.9" xlink:href="#linear-gradient"/><linearGradient id="linear-gradient-3" x1="157.06" y1="1679.99" x2="201.19" y2="1819" xlink:href="#linear-gradient"/><linearGradient id="linear-gradient-4" x1="71.13" y1="1707.27" x2="115.26" y2="1846.28" xlink:href="#linear-gradient"/></defs><title>play-grey-bg</title><g id="Layer_2" data-name="Layer 2"><g id="grey"><rect width="300" height="300" style="fill:#2e2e2f"/><path d="M149.93,132.69l29.74-19.26L121.89,72.86l18,56.23C141.32,133.7,145.86,135.32,149.93,132.69Z" style="fill:url(#linear-gradient)"/><path d="M126.36,148a12.22,12.22,0,0,0,4.72-13.2L108.25,63.33,96.06,54.77c-7.18-5-13.06-2-13.06,6.79V176Z" style="fill:url(#linear-gradient-2)"/><path d="M225.49,145.6l-36.92-25.93-35.46,23a12.22,12.22,0,0,0-4.72,13.2l16.24,50.84L225.5,164C232.68,158.9,232.68,150.64,225.49,145.6Z" style="fill:url(#linear-gradient-3)"/><path d="M139.63,161.52c-1.48-4.62-6-6.24-10.09-3.61L83,188.06v60c0,8.78,5.88,11.84,13.07,6.79L156,212.74Z" style="fill:url(#linear-gradient-4)"/></g></g></svg>
